X: 1
T: Fiddle Bell Jig
C: Becky Tracy
%D:2013
R: jig
S: Fiddle Hell Online 2021-11-7 handout
Z: 2022 John Chambers <jc:trillian.mit.edu>
M: 6/8
L: 1/8
K: D
|:\
"G"gdg "D"fdf | "Em"e2B BAB | "D"d2A ABd | FAd AGF |
"G"B2G GAB | "C"E2=c cBA | "D"FAd DFA | AGF [1 "G"GBd :|2 G3 ||
|:\
"D"F2d dcd | FAd DFA | "G"G2d dcd | edd B=cd |
"A7"A2e e^de | gfe edc | "D"daf "A"edc | "D"d3 [1 dAG :|2 def |]
